X: 43
T: The Final Battle [WIP]
C: Nobuo Uematsu
B: Final Fantasy IV DoReMi
G: Final Fantasy IV
M: 4/4
L: 1/4
Q: 1/4=172
K: Bb
V:1 clef=treble
D2 =B,2 | C2 E2 | D2 F2 | E2 G2 |
A/^F/G/B/ A/c/B/d/ | e/c/d/=f/ e/g/^f/a/ | [P:A] [Bdg]4- |]
V:2 clef=bass
=B,2 ^G,2 | A,2 C2 | =B,2 D2 | C2 E2 |
D4 | D,4 | E,, E,, E,, E,, |]
